X:0
T:A health to Beattie
S:NLS MS.5778
M:6/4 % "3|" in original
L:1/4
K:G Dor
G|G(AG) F2D|B2B A2F|Bcd   cdB | f3   d2f|
  fd2   B2B|cA2 F2F|G(AG) F>ED|(B2c) A2|]
